public/img/icons/cart.svg

<svg width="30" height="30" viewBox="0 0 30 30" fill="none" xmlns="http://www.w3.org/2000/svg">
<g clip-path="url(#clip0_cart)">
<path fill-rule="evenodd" clip-rule="evenodd" d="M3 15H18V6H3V15ZM30 0H21V18H3V21.2761C1.2555 21.8956 0 23.544 0 25.5C0 27.9855 2.0145 30 4.5 30C6.9855 30 9 27.9855 9 25.5C9 23.544 7.7445 21.8956 6 21.2761V21H21V21.2761C19.2555 21.8956 18 23.544 18 25.5C18 27.9855 20.0145 30 22.5 30C24.9855 30 27 27.9855 27 25.5C27 23.544 25.7445 21.8956 24 21.2761V3H30V0ZM4.5 23.9264C5.3205 24.2174 6 24.5085 6 25.5C6 26.3265 5.3265 27 4.5 27C3.6735 27 3 26.3265 3 25.5C3 24.5085 3.6795 24.2174 4.5 23.9264ZM22.5 23.9264C23.3205 24.2174 24 24.5085 24 25.5C24 26.3265 23.3265 27 22.5 27C21.6735 27 21 26.3265 21 25.5C21 24.5085 21.6795 24.2174 22.5 23.9264Z" fill="white"/>
</g>
<defs>
<clipPath id="clip0_cart">
<rect width="30" height="30" fill="white"/>
</clipPath>
</defs>
</svg>

<svg xmlns="http://www.w3.org/2000/svg" width="30" height="30" fill="none" viewBox="0 0 30 30"><g clip-path="url(#a)"><path fill="#fff" fill-rule="evenodd" d="M3 15h15V6H3zM30 0h-9v18H3v3.276c-1.744.62-3 2.268-3 4.224a4.5 4.5 0 1 0 9 0c0-1.956-1.255-3.604-3-4.224V21h15v.276c-1.744.62-3 2.268-3 4.224a4.5 4.5 0 1 0 9 0c0-1.956-1.256-3.604-3-4.224V3h6zM4.5 23.926c.82.291 1.5.583 1.5 1.574 0 .826-.673 1.5-1.5 1.5-.826 0-1.5-.674-1.5-1.5 0-.991.68-1.283 1.5-1.574m18 0c.82.291 1.5.583 1.5 1.574 0 .826-.674 1.5-1.5 1.5s-1.5-.674-1.5-1.5c0-.991.68-1.283 1.5-1.574" clip-rule="evenodd"/></g><defs><clipPath id="a"><path fill="#fff" d="M0 0h30v30H0z"/></clipPath></defs></svg>
